symbols/web/atm/materialsymbolsoutlined/atm_wght100gradN25_40px.svg

<svg xmlns="http://www.w3.org/2000/svg" height="40" width="40"><path d="M17.708 24.333v-7.625h-3.583v-1.041h8.25v1.041H18.75v7.625Zm-13.25 0v-7.541q0-.459.334-.792.333-.333.791-.333h4.834q.458 0 .771.333.312.333.312.792v7.541h-1.042V21.25H5.5v3.083ZM5.5 20.208h4.958v-3.5H5.5Zm19.375 4.125v-7.541q0-.459.313-.792.312-.333.812-.333h8.417q.458 0 .791.333.334.333.334.792v7.541H34.5v-7.625h-3.792v5.917h-1v-5.917h-3.791v7.625Z"/></svg>

<svg xmlns="http://www.w3.org/2000/svg" height="40" width="40"><path d="M17.708 24.333V16.708H14.125V15.667H22.375V16.708H18.75V24.333ZM4.458 24.333V16.792Q4.458 16.333 4.792 16Q5.125 15.667 5.583 15.667H10.417Q10.875 15.667 11.188 16Q11.5 16.333 11.5 16.792V24.333H10.458V21.25H5.5V24.333ZM5.5 20.208H10.458V16.708H5.5ZM24.875 24.333V16.792Q24.875 16.333 25.188 16Q25.5 15.667 26 15.667H34.417Q34.875 15.667 35.208 16Q35.542 16.333 35.542 16.792V24.333H34.5V16.708H30.708V22.625H29.708V16.708H25.917V24.333Z"/></svg>
